X: 13615
T: Foggy Dew, The
R: waltz
M: 3/4
K: Eminor
B2 d2|e2 d2 B2|e3 d B2|A2 B2 G2|D3 E F2|G3 B AG|E4 D2|E6-|E2 g2 f2|
e3 d B2|ed- d2 B2|A4 G2|D4 F2|G2 B2 G2|E4 ^D2|E6-|E2||
E2 F2|G4 BG|d/e/d c2 B2|A3 G A2|B4 GA|B2 g3 f|e3 d B/c/d|e6-|e2 B2 g2|
e2 d2 B2|g3 b ag|e3 d BG|D4 D/E/F|G3 B AG|E4 ^D2|E6-|E2||

